animator-ulyanovsk/img/i_form-envelope@1x.svg

<svg xmlns="http://www.w3.org/2000/svg" width="17" height="12"><path fill-rule="evenodd" fill="#FFF" d="M16 11.999H1a1 1 0 0 1-1-1v-10a1 1 0 0 1 1-1h15a1 1 0 0 1 1 1v10a1 1 0 0 1-1 1zM8.502 6.001l4.002-4.002H4.5l4.002 4.002zm1.069 1.906l5.336-5.336c.114-.114.093 7.428.093 7.428H2s.072-7.6.174-7.498l5.073 5.074c.18.18 2.128.528 2.324.332z"/></svg>

<svg
 xmlns="http://www.w3.org/2000/svg"
 xmlns:xlink="http://www.w3.org/1999/xlink"
 width="17px" height="12px">
<path fill-rule="evenodd"  fill="rgb(255, 255, 255)"
 d="M16.000,11.999 L1.000,11.999 C0.448,11.999 -0.000,11.551 -0.000,10.999 L-0.000,0.999 C-0.000,0.447 0.448,-0.001 1.000,-0.001 L16.000,-0.001 C16.552,-0.001 17.000,0.447 17.000,0.999 L17.000,10.999 C17.000,11.551 16.552,11.999 16.000,11.999 ZM8.502,6.001 L12.504,1.999 L4.500,1.999 L8.502,6.001 ZM9.571,7.907 L14.907,2.571 C15.021,2.457 15.000,9.999 15.000,9.999 L2.000,9.999 C2.000,9.999 2.072,2.399 2.174,2.501 L7.247,7.575 C7.427,7.755 9.375,8.103 9.571,7.907 Z"/>
</svg>
